X:1
T:Partition sans titre
C:Compositeur / Arrangeur
L:1/8
M:4/4
I:linebreak $
K:D
V:1 treble nm="Violon" snm="Vln."
V:1
"D" dcde f2 ed |"A" cABc PB2 A2 |"D" dcde f2 ed |1"A" cABc"D" d2 (3ABc :|2"A" cABc"D" d2 d2 |: %5
"D" fefg f2 ed |"A" cABc PB2 A2 |"D" fefg f2 ed |1"A" cABc"D" d2 d2 :|2"A" cABc"D" d2 (3ABc |] %10
